svg/filter_remove.svg

<svg xmlns="http://www.w3.org/2000/svg" viewBox="0 0 24 24"><path d="M14.76 20.83 17.6 18l-2.84-2.83 1.41-1.41L19 16.57l2.83-2.81 1.41 1.41L20.43 18l2.81 2.83-1.41 1.41L19 19.4l-2.83 2.84zM12 12v7.88c.04.3-.06.62-.29.83a.996.996 0 0 1-1.41 0L8.29 18.7a.99.99 0 0 1-.29-.83V12h-.03L2.21 4.62a1 1 0 0 1 .17-1.4c.19-.14.4-.22.62-.22h14c.22 0 .43.08.62.22a1 1 0 0 1 .17 1.4L12.03 12z"/></svg>

<?xml version="1.0" encoding="UTF-8"?><!DOCTYPE svg PUBLIC "-//W3C//DTD SVG 1.1//EN" "http://www.w3.org/Graphics/SVG/1.1/DTD/svg11.dtd"><svg xmlns="http://www.w3.org/2000/svg" xmlns:xlink="http://www.w3.org/1999/xlink" version="1.1" id="mdi-filter-remove" width="24" height="24" viewBox="0 0 24 24"><path d="M14.76,20.83L17.6,18L14.76,15.17L16.17,13.76L19,16.57L21.83,13.76L23.24,15.17L20.43,18L23.24,20.83L21.83,22.24L19,19.4L16.17,22.24L14.76,20.83M12,12V19.88C12.04,20.18 11.94,20.5 11.71,20.71C11.32,21.1 10.69,21.1 10.3,20.71L8.29,18.7C8.06,18.47 7.96,18.16 8,17.87V12H7.97L2.21,4.62C1.87,4.19 1.95,3.56 2.38,3.22C2.57,3.08 2.78,3 3,3V3H17V3C17.22,3 17.43,3.08 17.62,3.22C18.05,3.56 18.13,4.19 17.79,4.62L12.03,12H12Z" /></svg>
